public/img/assets/icons/weather-conditions/small/thunder-showers-day.svg

<svg width="24" height="24" viewBox="0 0 24 24" fill="none" xmlns="http://www.w3.org/2000/svg">
<path d="M12.5082 18.9017L12.992 16H17.1729L16.8726 17.2001H17.9053C18.0156 17.2003 18.1237 17.2308 18.2178 17.2882C18.3119 17.3457 18.3884 17.428 18.4388 17.526C18.4892 17.624 18.5116 17.734 18.5036 17.8439C18.4955 17.9538 18.4574 18.0593 18.3933 18.149L15.3903 22.3495C15.3162 22.4526 15.2113 22.5297 15.0907 22.5695C14.97 22.6093 14.8399 22.6099 14.7189 22.5711C14.5979 22.5323 14.4924 22.4562 14.4174 22.3537C14.3424 22.2513 14.3019 22.1277 14.3017 22.0007V19.6004H13.1005C13.0133 19.6004 12.9271 19.5814 12.848 19.5448C12.7689 19.5081 12.6987 19.4547 12.6423 19.3882C12.5859 19.3217 12.5447 19.2437 12.5216 19.1597C12.4984 19.0757 12.4938 18.9877 12.5082 18.9017Z" fill="#3FD5FE"/>
<path d="M5.7496 18.7501C5.62177 18.75 5.49608 18.7173 5.38446 18.655C5.27284 18.5927 5.179 18.5029 5.11184 18.3941C5.04469 18.2853 5.00644 18.1612 5.00075 18.0335C4.99505 17.9058 5.02208 17.7788 5.07929 17.6644L6.20429 15.4144C6.2933 15.2365 6.44934 15.1013 6.63808 15.0384C6.82682 14.9756 7.03279 14.9903 7.21069 15.0793C7.3886 15.1683 7.52385 15.3243 7.58671 15.5131C7.64956 15.7018 7.63486 15.9078 7.54585 16.0857L6.42085 18.3357C6.3585 18.4603 6.26267 18.5651 6.1441 18.6383C6.02554 18.7114 5.88893 18.7502 5.7496 18.7501Z" fill="#3FD5FE"/>
<path d="M9.7496 18.7501C9.62177 18.75 9.49608 18.7173 9.38446 18.655C9.27284 18.5927 9.179 18.5029 9.11184 18.3941C9.04469 18.2853 9.00644 18.1612 9.00075 18.0335C8.99505 17.9058 9.02208 17.7788 9.07929 17.6644L10.2043 15.4144C10.2933 15.2365 10.4493 15.1013 10.6381 15.0384C10.8268 14.9756 11.0328 14.9903 11.2107 15.0793C11.3886 15.1683 11.5239 15.3243 11.5867 15.5131C11.6496 15.7018 11.6349 15.9078 11.5459 16.0857L10.4208 18.3357C10.3585 18.4603 10.2627 18.5651 10.1441 18.6383C10.0255 18.7114 9.88893 18.7502 9.7496 18.7501Z" fill="#3FD5FE"/>
<path d="M12.0023 4.00909C15.1713 4.00909 16.9683 6.10609 17.2303 8.63909H17.3103C17.7946 8.63844 18.2742 8.73319 18.7219 8.91793C19.1695 9.10268 19.5764 9.3738 19.9192 9.71581C20.2621 10.0578 20.5342 10.464 20.72 10.9112C20.9059 11.3584 21.0018 11.8378 21.0023 12.3221C21.0017 12.8063 20.9056 13.2856 20.7198 13.7327C20.5339 14.1797 20.2617 14.5858 19.9189 14.9277C19.5761 15.2696 19.1692 15.5407 18.7217 15.7254C18.2741 15.91 17.7945 16.0048 17.3103 16.0041H6.69432C6.21014 16.0048 5.73056 15.91 5.28298 15.7254C4.83541 15.5407 4.42859 15.2696 4.08575 14.9277C3.74292 14.5858 3.47078 14.1797 3.28489 13.7327C3.09899 13.2856 3.00298 12.8063 3.00232 12.3221C3.00284 11.8378 3.09876 11.3584 3.2846 10.9112C3.47044 10.464 3.74255 10.0578 4.0854 9.71581C4.42825 9.3738 4.83511 9.10268 5.28275 8.91793C5.7304 8.73319 6.21005 8.63844 6.69432 8.63909H6.77432C7.03732 6.08909 8.83432 4.00909 12.0023 4.00909Z" fill="#3FD5FE"/>
<path d="M3.36837 8.1641C3.43783 8.33169 3.44418 8.51878 3.38627 8.69069C3.32835 8.86261 3.21008 9.00771 3.05337 9.0991L2.96237 9.1441L2.03637 9.5281C1.86086 9.60061 1.66438 9.60384 1.48658 9.53715C1.30878 9.47045 1.1629 9.33879 1.07838 9.16873C0.993861 8.99868 0.976996 8.8029 1.03119 8.62089C1.08538 8.43889 1.2066 8.28422 1.37037 8.1881L1.46237 8.1421L2.38837 7.7591C2.57204 7.68291 2.77845 7.68277 2.96222 7.75871C3.14599 7.83466 3.29208 7.98047 3.36837 8.1641ZM9.85537 3.3311L9.68337 3.3891C7.89937 4.0191 6.62137 5.3941 6.06837 7.2121L5.99837 7.4621L5.94037 7.7001L5.73438 7.7391C5.13611 7.86477 4.56857 8.10742 4.06437 8.4531C3.60604 7.66533 3.43484 6.74308 3.57991 5.8433C3.72497 4.94351 4.17733 4.1218 4.86002 3.51798C5.5427 2.91416 6.41352 2.56555 7.32429 2.53148C8.23505 2.49741 9.12948 2.77998 9.85537 3.3311ZM1.94037 3.3621L2.04637 3.3971L2.97237 3.7811C3.1465 3.85409 3.28669 3.99007 3.36495 4.16189C3.44322 4.33371 3.4538 4.52873 3.39459 4.708C3.33538 4.88728 3.21073 5.03763 3.04552 5.12904C2.88032 5.22044 2.68672 5.24618 2.50337 5.2011L2.40037 5.1681L1.47437 4.7841C1.30071 4.7109 1.16097 4.57499 1.08297 4.40343C1.00496 4.23187 0.994404 4.03723 1.0534 3.85824C1.11239 3.67924 1.2366 3.52902 1.40133 3.43746C1.56606 3.3459 1.75922 3.31971 1.94237 3.3641L1.94037 3.3621ZM5.75537 0.376103L5.80137 0.467103L6.18437 1.3941C6.25585 1.56946 6.25834 1.76536 6.19136 1.94248C6.12438 2.1196 5.99288 2.26483 5.82325 2.349C5.65363 2.43318 5.45844 2.45008 5.27688 2.39631C5.09531 2.34254 4.9408 2.22207 4.84437 2.0591L4.79837 1.9681L4.41537 1.0411C4.3439 0.865747 4.34141 0.669846 4.40839 0.492726C4.47537 0.315607 4.60687 0.170381 4.7765 0.0862021C4.94612 0.00202356 5.14131 -0.0148761 5.32287 0.0388961C5.50444 0.0926683 5.65895 0.213132 5.75537 0.376103ZM10.1094 0.0571027C10.2754 0.126014 10.4112 0.252266 10.4919 0.412866C10.5727 0.573467 10.5931 0.757731 10.5494 0.932103L10.5144 1.0371L10.1314 1.9641C10.0584 2.13823 9.9224 2.27842 9.75059 2.35668C9.57877 2.43495 9.38375 2.44553 9.20447 2.38632C9.02519 2.32711 8.87484 2.20245 8.78344 2.03725C8.69203 1.87205 8.6663 1.67845 8.71138 1.4951L8.74537 1.3891L9.12937 0.463103C9.16706 0.37209 9.2223 0.289392 9.29194 0.21973C9.36159 0.150069 9.44427 0.0948096 9.53528 0.0571079C9.62628 0.0194062 9.72382 9.00314e-07 9.82233 0C9.92083 -9.00251e-07 10.0184 0.0194026 10.1094 0.0571027Z" fill="#FEB800"/>
</svg>

<svg width="24" height="24" fill="none" xmlns="http://www.w3.org/2000/svg"><path d="M12.508 18.902 12.992 16h4.18l-.3 1.2h1.033a.602.602 0 0 1 .599.644.6.6 0 0 1-.11.305l-3.004 4.2a.601.601 0 0 1-1.088-.348v-2.4H13.1a.601.601 0 0 1-.593-.7ZM5.75 18.75a.75.75 0 0 1-.67-1.086l1.124-2.25a.75.75 0 0 1 1.342.672l-1.125 2.25a.75.75 0 0 1-.671.414ZM9.75 18.75a.75.75 0 0 1-.67-1.086l1.124-2.25a.75.75 0 1 1 1.342.672l-1.125 2.25a.75.75 0 0 1-.671.414Z" fill="#3FD5FE"/><path d="M12.002 4.01c3.17 0 4.966 2.096 5.228 4.63h.08a3.687 3.687 0 0 1 3.692 3.682 3.688 3.688 0 0 1-3.692 3.682H6.694a3.688 3.688 0 0 1-3.692-3.682A3.687 3.687 0 0 1 6.694 8.64h.08c.263-2.55 2.06-4.63 5.228-4.63Z" fill="#3FD5FE"/><path d="M3.368 8.164a.75.75 0 0 1-.315.935l-.09.045-.927.384a.75.75 0 0 1-.666-1.34l.092-.046.926-.383a.75.75 0 0 1 .98.405Zm6.487-4.833-.172.058C7.9 4.02 6.621 5.394 6.068 7.212l-.07.25-.058.238-.206.04a4.64 4.64 0 0 0-1.67.713 3.942 3.942 0 0 1 5.791-5.122Zm-7.915.031.106.035.926.384a.75.75 0 0 1-.469 1.42L2.4 5.168l-.926-.384a.75.75 0 0 1 .468-1.42l-.002-.002ZM5.755.376l.046.091.383.927a.75.75 0 0 1-1.34.665l-.046-.09-.383-.928a.75.75 0 0 1 1.34-.665ZM10.11.057a.75.75 0 0 1 .44.875l-.035.105-.383.927a.75.75 0 0 1-1.42-.469l.034-.106.384-.926a.75.75 0 0 1 .98-.406Z" fill="#FEB800"/></svg>
